X: 15
T:Nightingale, The
M:6/8
L:1/8
C:Sen Ryan
R:Double Jig
K:ADor
G[|:EAA A2B|cAB cAG|~E3 GFG|G,B,D GFG|!
EAA A2B|cAB cde|gfg (3efg e|1dBG A2G:|2dBG A2a|!
|:aea aef|gdg gdg|aea agf|gfe def|!
g2e fed|edB GBd|gfg (3efg e|1dBG A2a:|2dBG A2G:|]!
